X:1
T:Annie Laurie, 76.76.66.86
T:Annie Laurie, 76.76.66.86
T:Attributed to Lady Jane Scott (1810-1900)
T:Public Domain Courtesy of the Cyber Hymnal™
C:Attributed to Lady Jane Scott (1810-1900)
Z:Public Domain
Z:Courtesy of the Cyber Hymnal™
%%score ( 1 2 ) ( 3 4 )
L:1/8
Q:1/4=110
M:4/4
K:C
V:1 treble 
V:2 treble 
V:3 bass 
V:4 bass 
V:1
 (ED) | C3 C c3 z c | [GB]2 [FA]4 [FA]2 | [EG]3 [CE] [CE]2 (DC) | [B,D]6 [B,E][B,D] | %5
 C3 C [Gc]3 [Gc] | [GB]2 [FA]4 [^DA]2 | [EG]2 [CE]2 E3 z D | C6 G2 | [Gc]3 [Gc] [Gd]3 [Gd] x2 | %10
 [Ge]6 [EG]2 | [Ec]3 [Ec] [Ad]3 [Ad] x2 | [^Ge]6 [Ee][Ed] | c3 z B [FA]2 (cA) | [EG]2 E4 (ED) | %15
 C2 [Cc]2 [B,E]3 [B,D] x | C6 |] %17
V:2
 C2 | C3 C E2 G2 x | x8 | x6 C2 | x8 | C3 C x4 | x8 | x4 B,2 B,2 x | C6 G2 | x10 | x8 | x10 | x8 | %13
 E2 (E2 x F2) x2 | x2 E4 B,2 | C2 x7 | C6 |] %17
V:3
 (G,F,) | [C,E,]2 [C,E,]2 [C,G,]2 [E,C]2 x | [F,C]2 [F,C]4 [F,C]2 | %3
 [C,C]2 [C,G,]2 [A,,^F,]2 [A,,F,]2 | [G,,G,]6 [G,,G,][G,,F,] | [C,E,]2 [C,E,]2 [E,G,]2 [E,C]2 | %6
 [F,C]2 [F,C]4 [^F,C]2 | C2 G,2 G,3 z F, | [C,E,]6 B,2 | C3 z C B,3 z B, | [C,C]6 ([CE][B,D]) | %11
 C3 z C A,3 z A, | [E,B,]6 [^G,B,][G,B,] | [A,C]2 [G,C]2 [F,C]2 (A,C) x | %14
 [C,C]2 [C,G,]4 [^G,,E,]2 | [A,,E,]2 [A,,^F,]2 G,3 z =F, | [C,E,]6 |] %17
V:4
 C,2 | x9 | x8 | x8 | x8 | x8 | x8 | x2 G,2 G,,2 G,,2 x | x6 (G,F,) | E,2 (E,2 G,2) G,2 x2 | x8 | %11
 A,2 (A,2 F,2) F,2 x2 | x8 | x6 F,2 x | x8 | x4 G,,2 G,,2 x | x6 |] %17

